images/icons/twitter.svg

<svg width="24" height="23" viewBox="0 0 24 23" fill="none" xmlns="http://www.w3.org/2000/svg">
<g clip-path="url(#clip0_413718_857)" filter="url(#filter0_d_413718_857)">
<path d="M20 3.03888C19.405 3.29988 18.771 3.47288 18.11 3.55688C18.79 3.15088 19.309 2.51288 19.553 1.74388C18.919 2.12188 18.219 2.38888 17.473 2.53788C16.871 1.89688 16.013 1.49988 15.077 1.49988C13.261 1.49988 11.799 2.97388 11.799 4.78088C11.799 5.04088 11.821 5.29088 11.875 5.52888C9.148 5.39588 6.735 4.08888 5.114 2.09788C4.831 2.58888 4.665 3.15088 4.665 3.75588C4.665 4.89188 5.25 5.89888 6.122 6.48188C5.595 6.47188 5.078 6.31888 4.64 6.07788C4.64 6.08788 4.64 6.10088 4.64 6.11388C4.64 7.70788 5.777 9.03188 7.268 9.33688C7.001 9.40988 6.71 9.44488 6.408 9.44488C6.198 9.44488 5.986 9.43288 5.787 9.38888C6.212 10.6879 7.418 11.6429 8.852 11.6739C7.736 12.5469 6.319 13.0729 4.785 13.0729C4.516 13.0729 4.258 13.0609 4 13.0279C5.453 13.9649 7.175 14.4999 9.032 14.4999C15.068 14.4999 18.368 9.49988 18.368 5.16588C18.368 5.02088 18.363 4.88088 18.356 4.74188C19.007 4.27988 19.554 3.70288 20 3.03888Z" fill="#F4F4FD"/>
</g>
<defs>
<filter id="filter0_d_413718_857" x="0" y="-0.00012207" width="24" height="24" filterUnits="userSpaceOnUse" color-interpolation-filters="sRGB">
<feFlood flood-opacity="0" result="BackgroundImageFix"/>
<feColorMatrix in="SourceAlpha" type="matrix" values="0 0 0 0 0 0 0 0 0 0 0 0 0 0 0 0 0 0 127 0" result="hardAlpha"/>
<feOffset dy="4"/>
<feGaussianBlur stdDeviation="2"/>
<feComposite in2="hardAlpha" operator="out"/>
<feColorMatrix type="matrix" values="0 0 0 0 0 0 0 0 0 0 0 0 0 0 0 0 0 0 0.25 0"/>
<feBlend mode="normal" in2="BackgroundImageFix" result="effect1_dropShadow_413718_857"/>
<feBlend mode="normal" in="SourceGraphic" in2="effect1_dropShadow_413718_857" result="shape"/>
</filter>
<clipPath id="clip0_413718_857">
<rect width="16" height="16" fill="white" transform="translate(4 -0.00012207)"/>
</clipPath>
</defs>
</svg>

<svg xmlns="http://www.w3.org/2000/svg" width="24" height="23" fill="none"><g clip-path="url(#a)" filter="url(#b)"><path fill="#F4F4FD" d="M20 3.039a6.839 6.839 0 0 1-1.89.518 3.262 3.262 0 0 0 1.443-1.813 6.555 6.555 0 0 1-2.08.794 3.28 3.28 0 0 0-5.674 2.243c0 .26.022.51.076.748a9.284 9.284 0 0 1-6.761-3.431 3.285 3.285 0 0 0 1.008 4.384 3.24 3.24 0 0 1-1.482-.404v.036a3.295 3.295 0 0 0 2.628 3.223 3.274 3.274 0 0 1-.86.108 2.9 2.9 0 0 1-.621-.056 3.311 3.311 0 0 0 3.065 2.285 6.59 6.59 0 0 1-4.067 1.399c-.269 0-.527-.012-.785-.045A9.234 9.234 0 0 0 9.032 14.5c6.036 0 9.336-5 9.336-9.334 0-.145-.005-.285-.012-.424A6.544 6.544 0 0 0 20 3.039Z"/></g><defs><clipPath id="a"><path fill="#fff" d="M4 0h16v16H4z"/></clipPath><filter id="b" width="24" height="24" x="0" y="0" color-interpolation-filters="sRGB" filterUnits="userSpaceOnUse"><feFlood flood-opacity="0" result="BackgroundImageFix"/><feColorMatrix in="SourceAlpha" result="hardAlpha" values="0 0 0 0 0 0 0 0 0 0 0 0 0 0 0 0 0 0 127 0"/><feOffset dy="4"/><feGaussianBlur stdDeviation="2"/><feComposite in2="hardAlpha" operator="out"/><feColorMatrix values="0 0 0 0 0 0 0 0 0 0 0 0 0 0 0 0 0 0 0.25 0"/><feBlend in2="BackgroundImageFix" result="effect1_dropShadow_413718_857"/><feBlend in="SourceGraphic" in2="effect1_dropShadow_413718_857" result="shape"/></filter></defs></svg>
